X:1
T:Trust in the Promise
T:William Howard Doane
T:Trust in the Promise
T:Public Domain
T:Public Domain
C:William Howard Doane
Z:Public Domain
%%score ( 1 2 ) 3
L:1/8
M:4/4
K:G
V:1 treble 
V:2 treble 
V:3 bass 
V:1
 [B,D][B,D][DG][DA] [DB]2 [^C^A][DB] | [Dd]2 [DG][DA] [GB]4 | [FA]2 [FA]>[GB] [FA]D[DG][FA] | %3
w: 1.~Bro- ther, is your face toward the|Ca- naan of rest?|Trust in the pro- mise of the|
w: 2.~Bro- ther, is your faith look- ing|up- ward to- day?|Trust in the pro- mise of the|
w: 3.~Bro- ther, per- se- vere and be|firm to the last,|Trust in the pro- mise of the|
 [GB]4 [Gd]4 | [B,D][B,D][DG][DA] [DB]2 [^C^A][DB] | [Dd]2 [DG][DA] [GB]4 | %6
w: Sav- ior;|Sis- ter, are you bound for the|home of the blest?|
w: Sav- ior.|Sis- ter, is the light shin- ing|bright on your way?|
w: Sav- ior;|Sis- ter, you shall rest when your|la- bor is past,|
 [FA]2 [FA]>[GB] [FA][Ac][GB][FA] | G8 |:"^Refrain" [Gd]2 [Gd]2 [Ge][Gd][GB]G | %9
w: Trust in the pro- mise of thy|Lord.|will walk be- side us, in|
w: Trust in the pro- mise of thy|Lord.|we’ll trust in Je- sus. Yes,|
w: Trust in the pro- mise of thy|Lord.||
 [FA]2 [FA]2 [GB][FA]G[FA] | [GB]2 [Gd]2 [Ge][Gd][GB][DG] | [GB]2 [GA]2 [FA]4 :| %12
w: mer- cy hide us; With His|eye He’ll guide us, trust in|Him. * *|
w: trust in Je- sus. He’ll for-|sake us ne- ver, ~ ~|~ trust in|
w: |||
 [GB]2 [DA]2 [DG]4 |] %13
w: |
w: Him. * *|
w: |
V:2
 x8 | x8 | x8 | x8 | x8 | x8 | x8 | G8 |: x7 G | x8 | x8 | x8 :| x8 |] %13
w: |||||||He|His|||||
w: |||||||Yes,|we’ll|||||
V:3
 [G,,G,][G,,G,][B,,G,][D,F,] [G,,G,]2 [G,,G,][G,,G,] | [G,B,]2 [G,B,][G,C] [G,D]4 | %2
 [D,D]2 [D,D]>[D,D] [D,D][D,C][D,B,][D,D] | [G,D]4 [G,B,]4 | %4
 [G,,G,][G,,G,][B,,G,][D,F,] [G,,G,]2 [G,,G,][G,,G,] | [G,B,]2 [G,B,][G,C] [G,D]4 | %6
 [D,D]2 [D,D]>[D,D] [D,D][D,D][D,D][D,C] | [G,B,]8 |: [G,B,]2 [G,B,]2 [G,C][G,B,][G,D][G,B,] | %9
 [D,D]2 [D,D]2 [G,D][D,D][B,,D][D,D] | [G,D]2 [G,B,]2 [G,C][G,B,][G,D][G,B,] | %11
 [E,D]2 [A,,^C]2 [D,D]4 :| [D,B,]2 [D,C]2 [G,B,]4 |] %13

